X:1
T:Title
L:1/8
Q:1/4=90
M:4/4
K:D
V:1 treble nm="Church Organ, Staff"
V:1
 A2 d2 A2 c2 | B2 G2 B2 A2 | z2 F2 F>G A2 | A2 G2 F2 E2 | A2 d2 A2 c2 | B2 G2 B2 A2 | %6
w: By~Rev.~G.~P.~Grantham * * *||||||
 z2 F2 F>G A2 | A2 G2 F2 E2 | z2 F2 F>E D2 | F>A B2 A>G F2 | A2 d2 .cB/A/- A z/ F/- | %11
w: |||||
 FA/d/- d z/ c/- cB/A/- A z/ A/- | A>B- B z/ A/- AG/F/- F z/ B/- | B>E- E z/ G/- G z/ F/- F z |] %14
w: |||

